**kern	**kern	**dynam
*part1	*part1	*part1
*staff2	*staff1	*
*I"Piano	*	*
*clefF4	*clefG2	*
*k[]	*k[]	*
=1	=1	=1
8FL 8c	8gL 8a	.
8F 8c	8g 8a	.
8F 8c	8g 8a	.
8FJ 8c	8gJ 8a	.
8FL 8d	8aL 8dd	sf
8F 8d	8a 8dd	<
8F 8d	8a 8cc	.
8FJ 8d	8aJ 8cc	.
=	=	=
8FL 8d	8g#XL 8cc	.
8F 8d	8g# 8cc	.
8F 8d	8g# 8b	.
8FJ 8d	8g#J 8b	.
8F#XL 8d#X	8aL 8b	[ >
8F# 8d#	8a 8b	.
8.F# 8.A	8.d#X 8.cc	.
16F#Jk 16c	16d#Jk 16a	.
=	=	=
!	!LO:TX:b:i:t=dim.	!
(2E 2B	(2e 2g#X	]
[2C#X [2B-X	[2e [2gn	.
=	=	=
4C#]) 4B-]	4e]) 4g]	.
*^	*	*
2A	[2.D	([2d 2f#X	.
8.BnL	.	8.dL] 8.g	.
16cJk>	.	16dJk) 16f# 16a	.
*v	*v	*	*
=||	=||	=||
*k[f#]	*k[f#]	*
*	*^	*
[1GG 1D_	(2...a	1c 1d 1f#	p
.	16a#X	.	.
*	*v	*v	*
=	=	=
2GG] 2D]	2B 2g 2b	>
[2AA	2G 2c#X 2g	.
=	=	=
*^	*	*
2AA]	[1DD	4A) 4d 4f#	]
*	*	*clefF4	*
.	.	(2D 2F#	p <
2ryy	.	.	.
.	.	8.C#XL 8.E 8.G	.
.	.	16CnJk) 16F# 16A	.
*v	*v	*	*
=	=	=
*-	*-	*-
!!!system-decoration: {(s1,s2)}
!!!RDF**kern: > = above
